X: 38529
T: Step It Out Molly
R: polka
M: 2/4
K: Dmajor
|:af dA/d/|cd ef|ge/g/ fe|df a>g|
af dA/d/|cd ef|ge/g/ fc|1 ed d>g:|2 ed d2||
|:FA AF|GB Bc/B/|Ad de|fd/f/ e2|
FA AF|GB Bc/B/|Ac Bc|1 d2 dA:|2 d2 d>g||

